X:1
T:Balance a Straw TS.007
T:Balance a Straw TS.007
T:Lads A Bunchum,aka TS.007 Wearing of the Green,aka TS.007 Tulip,The,aka TS.007
T:James Oswald,1747
C:James Oswald,1747
L:1/8
Q:1/2=60
M:4/4
K:G
V:1 treble 
V:1
 GA | B2 BB B2 d2 |"^sic" cB A2 AA A2 | Bc d2 cB c2 | BA G2 GG G2 :: ge | d2 dd d2 GA | %7
 B2 BB B2 ge | d2 dd d2 cB | AGFE D2 B2 | BB B2 g2 dB | A2 AA A2 Bc | d2 cB c2 BA | G2 GG G2 :| %14

